local/templates/main/img/svg/logos/elbrus.svg

<svg width="162" height="47" viewBox="0 0 162 47" fill="none" xmlns="http://www.w3.org/2000/svg">
<path d="M160.432 29.5194C160.418 29.4834 160.396 29.451 160.367 29.4244C160.339 29.3978 160.306 29.3777 160.269 29.3654C160.232 29.3531 160.193 29.349 160.155 29.3533C160.116 29.3576 160.079 29.3702 160.046 29.3903C158.414 30.3538 156.5 30.92 154.775 30.92C150.761 30.92 147.688 27.7877 147.688 23.6621C147.688 19.5861 150.761 16.4555 154.775 16.4555C156.499 16.4555 158.407 17.02 160.043 17.9786C160.076 17.9987 160.113 18.0113 160.151 18.0156C160.189 18.0199 160.228 18.0157 160.265 18.0034C160.301 17.9911 160.335 17.971 160.363 17.9444C160.391 17.9178 160.413 17.8854 160.427 17.8495L161.816 14.3596C161.838 14.3006 161.84 14.2355 161.821 14.1753C161.802 14.115 161.763 14.0632 161.71 14.0285C159.632 12.7237 157.229 12.035 154.777 12.0418C148.087 12.0418 142.833 17.1127 142.833 23.7233C142.833 30.2859 148.087 35.3552 154.777 35.3552C157.228 35.361 159.632 34.6724 161.71 33.3686C161.763 33.3338 161.802 33.282 161.821 33.2218C161.84 33.1615 161.838 33.0964 161.816 33.0375L160.432 29.5194Z" fill="#424346"/>
<path d="M7.22461 12.0303C4.77306 12.023 2.3695 12.7118 0.291858 14.017C0.238843 14.0515 0.199253 14.1032 0.179721 14.1635C0.160188 14.2238 0.161898 14.2889 0.184564 14.3481L1.57276 17.838C1.58707 17.874 1.60902 17.9064 1.63707 17.9329C1.66513 17.9595 1.69863 17.9797 1.73523 17.992C1.77183 18.0043 1.81067 18.0084 1.84903 18.0041C1.88739 17.9998 1.92436 17.9872 1.95737 17.9671C3.59152 17.0086 5.50132 16.444 7.22461 16.444C8.70217 16.4239 10.1477 16.8768 11.3511 17.7369C12.5544 18.597 13.4531 19.8195 13.9164 21.2269H4.89058C4.85497 21.2267 4.81967 21.2336 4.78673 21.2471C4.75379 21.2607 4.72386 21.2807 4.69867 21.3059C4.67349 21.3312 4.65356 21.3612 4.64003 21.3943C4.62651 21.4273 4.61965 21.4627 4.61987 21.4984V24.9502C4.61965 24.986 4.62651 25.0214 4.64003 25.0544C4.65356 25.0874 4.67349 25.1175 4.69867 25.1427C4.72386 25.168 4.75379 25.188 4.78673 25.2015C4.81967 25.2151 4.85497 25.222 4.89058 25.2217H14.1491C13.8455 26.8363 12.9838 28.2917 11.7157 29.3319C10.4476 30.3721 8.85439 30.9304 7.21635 30.9086C5.49142 30.9086 3.58491 30.3424 1.94581 29.3788C1.91275 29.3585 1.87564 29.3456 1.83709 29.3411C1.79854 29.3367 1.75948 29.3408 1.72267 29.3531C1.68586 29.3654 1.65218 29.3856 1.624 29.4124C1.59582 29.4391 1.57382 29.4718 1.55956 29.508L0.169709 33.0028C0.147043 33.062 0.145333 33.1272 0.164865 33.1874C0.184398 33.2477 0.223988 33.2994 0.277003 33.3339C2.35517 34.638 4.75838 35.3266 7.20975 35.3206C13.8999 35.3206 19.1539 30.2513 19.1539 23.6887C19.1687 17.1013 13.9147 12.0303 7.22461 12.0303Z" fill="#424346"/>
<path d="M56.0348 19.0928H52.0435V12.1395C52.0435 12.1007 52.0351 12.0624 52.0189 12.0271C52.0028 11.9918 51.9793 11.9604 51.9501 11.9349C51.9208 11.9095 51.8865 11.8907 51.8494 11.8797C51.8122 11.8688 51.7732 11.8659 51.7349 11.8713L47.2699 12.5021C47.2052 12.5109 47.146 12.543 47.1032 12.5923C47.0604 12.6417 47.0369 12.7049 47.0371 12.7703V34.4133C47.0371 34.4853 47.0656 34.5544 47.1164 34.6053C47.1672 34.6562 47.236 34.6848 47.3078 34.6848H56.0348C61.7444 34.6848 65.1861 32.0061 65.1861 27.0014C65.1861 21.9967 61.6272 19.0928 56.0348 19.0928ZM55.8566 30.536H52.0435V23.4668H55.8566C58.4877 23.4668 60.041 24.879 60.041 27.0014C60.0377 29.5543 58.387 30.536 55.8566 30.536Z" fill="#424346"/>
<path d="M26.6939 12.5286C26.6298 12.5285 26.5677 12.5513 26.5188 12.5928C26.4698 12.6343 26.4371 12.692 26.4265 12.7554C26.2615 13.762 25.5765 17.9472 24.9162 21.7334C24.5861 23.6555 23.9984 26.7166 23.4537 27.8457C22.6449 29.5178 21.2831 30.3638 19.5598 30.7612C19.5243 30.7687 19.4907 30.7834 19.461 30.8043C19.4313 30.8253 19.4062 30.852 19.3871 30.8829C19.3679 30.9139 19.3553 30.9483 19.3498 30.9843C19.3443 31.0203 19.3461 31.057 19.3551 31.0923L20.3653 35.0656C20.382 35.1302 20.4215 35.1866 20.4764 35.2243C20.5313 35.2621 20.598 35.2786 20.6641 35.2709C24.6389 34.809 27.0719 33.2677 28.3793 28.349C29.1105 25.5958 30.7083 16.9953 30.7083 16.9953H36.2677V34.4812C36.2677 34.5532 36.2963 34.6222 36.347 34.6732C36.3978 34.7241 36.4667 34.7527 36.5385 34.7527H40.9622C40.9978 34.7529 41.0331 34.746 41.0661 34.7325C41.099 34.7189 41.1289 34.6989 41.1541 34.6736C41.1793 34.6484 41.1992 34.6184 41.2127 34.5853C41.2263 34.5523 41.2331 34.5169 41.2329 34.4812V12.7935C41.2329 12.7215 41.2044 12.6524 41.1536 12.6015C41.1029 12.5506 41.034 12.522 40.9622 12.522L26.6939 12.5286Z" fill="#424346"/>
<path d="M106.474 12.2669C103.946 12.2669 101.472 13.4159 99.9386 14.742V12.1444C99.9385 12.1058 99.9301 12.0676 99.9141 12.0324C99.8981 11.9973 99.8748 11.9659 99.8457 11.9405C99.8166 11.9152 99.7825 11.8963 99.7456 11.8852C99.7087 11.8741 99.6698 11.871 99.6316 11.8762L95.1748 12.4971C95.1099 12.5055 95.0503 12.5374 95.0072 12.5868C94.964 12.6362 94.9403 12.6996 94.9404 12.7653V45.3796C94.9402 45.4154 94.9471 45.4509 94.9606 45.484C94.9741 45.5171 94.994 45.5472 95.0191 45.5726C95.0443 45.598 95.0742 45.6182 95.1072 45.6319C95.1401 45.6457 95.1755 45.6527 95.2111 45.6527H99.6762C99.7119 45.6527 99.7472 45.6457 99.7801 45.6319C99.8131 45.6182 99.843 45.598 99.8682 45.5726C99.8933 45.5472 99.9132 45.5171 99.9267 45.484C99.9402 45.4509 99.9471 45.4154 99.9469 45.3796V33.3106C101.682 34.3768 103.791 34.9877 106.186 34.9877C112.789 34.9877 117.447 30.2214 117.447 23.73C117.439 16.8876 112.558 12.2669 106.474 12.2669ZM106.115 30.5839C102.259 30.5839 99.6184 27.6188 99.6184 23.8061C99.6184 19.8527 102.4 16.8876 106.256 16.8876C110.065 16.8876 112.934 19.8527 112.934 23.7118C112.934 27.6652 109.971 30.5839 106.115 30.5839Z" fill="#424346"/>
<path d="M80.2648 12.7008C77.3366 12.7008 74.8969 13.7785 73.5368 15.2801C74.4512 11.1909 76.1283 9.66282 78.8189 8.70923C80.5702 8.0884 82.518 7.80861 84.2396 7.36658C86.9483 6.67125 87.6928 6.1812 89.1272 5.47429C89.1897 5.44403 89.2385 5.39127 89.2639 5.32652C89.2893 5.26177 89.2894 5.1898 89.2642 5.12496L87.569 0.986093C87.5559 0.952048 87.536 0.921079 87.5104 0.895126C87.4848 0.869173 87.4542 0.848797 87.4204 0.835275C87.3866 0.821752 87.3504 0.815374 87.3141 0.816542C87.2777 0.81771 87.242 0.826397 87.2091 0.84206C85.8525 1.49221 84.434 2.0036 82.9752 2.36848C81.2057 2.79561 78.9691 3.3469 76.9602 4.0472C69.6379 6.59675 68.0467 12.8332 68.0137 21.5199C68.0137 21.5414 68.0137 21.5596 68.0137 21.5811C68.0137 21.6424 68.0137 21.702 68.0137 21.7665H68.0219C68.116 30.5062 73.167 34.8752 79.5649 34.8752C86.1164 34.8752 90.9347 30.1469 90.9347 23.7168C90.9281 17.429 86.2996 12.7008 80.2648 12.7008ZM79.3834 29.8853C78.1501 29.8847 76.9446 29.5173 75.9195 28.8295C74.8943 28.1418 74.0955 27.1646 73.6241 26.0216C73.1527 24.8785 73.0297 23.6209 73.2709 22.4078C73.512 21.1947 74.1063 20.0805 74.9788 19.2062C75.8512 18.3319 76.9626 17.7366 78.1723 17.4958C79.382 17.2549 80.6358 17.3792 81.7751 17.8529C82.9144 18.3267 83.888 19.1286 84.5729 20.1573C85.2578 21.1861 85.6232 22.3954 85.6229 23.6323C85.622 25.2913 84.9642 26.8821 83.7941 28.0547C82.624 29.2273 81.0375 29.8858 79.3834 29.8853Z" fill="#424346"/>
<path d="M142.316 12.5285H137.23C137.178 12.529 137.126 12.5449 137.083 12.5743C137.039 12.6037 137.005 12.6454 136.984 12.6941L130.506 26.7398L123.634 12.6891C123.612 12.6434 123.577 12.6048 123.535 12.5779C123.492 12.551 123.442 12.5367 123.391 12.5368H118.256C118.21 12.5366 118.165 12.5482 118.124 12.5705C118.084 12.5927 118.05 12.625 118.026 12.6641C118.001 12.7032 117.987 12.7479 117.985 12.794C117.982 12.8401 117.992 12.886 118.012 12.9275L127.63 32.9497C127.63 32.9497 125.801 37.1581 124.925 38.4362C123.934 39.8666 122.731 41.1778 120.575 41.9559C120.515 41.9769 120.464 42.0184 120.432 42.0732C120.399 42.128 120.387 42.1926 120.397 42.2556L121.122 46.3729C121.129 46.4093 121.143 46.4439 121.163 46.4748C121.183 46.5057 121.21 46.5321 121.241 46.5526C121.271 46.5732 121.306 46.5873 121.342 46.5942C121.378 46.6012 121.416 46.6008 121.452 46.5931C124.17 46.0103 125.689 45.2869 127.531 43.3846C129.046 41.8168 130.425 39.1315 131.371 37.0936C134.558 30.228 141.38 15.4837 142.565 12.9225C142.587 12.8806 142.597 12.8337 142.595 12.7865C142.593 12.7393 142.579 12.6935 142.554 12.6536C142.529 12.6137 142.493 12.5812 142.452 12.5592C142.41 12.5373 142.363 12.5267 142.316 12.5285Z" fill="#424346"/>
</svg>

<svg width="162" height="47" viewBox="0 0 162 47" fill="none" xmlns="http://www.w3.org/2000/svg"><path d="M160.432 29.52a.253.253 0 00-.065-.096.261.261 0 00-.212-.07.265.265 0 00-.109.036c-1.632.964-3.546 1.53-5.271 1.53-4.014 0-7.087-3.132-7.087-7.258 0-4.076 3.073-7.206 7.087-7.206 1.724 0 3.632.564 5.268 1.523a.265.265 0 00.384-.13l1.389-3.49a.284.284 0 00.005-.184.273.273 0 00-.111-.147 12.968 12.968 0 00-6.933-1.986c-6.69 0-11.944 5.07-11.944 11.681 0 6.563 5.254 11.632 11.944 11.632a12.988 12.988 0 006.933-1.986.274.274 0 00.111-.147.284.284 0 00-.005-.184l-1.384-3.519zM7.225 12.03a12.96 12.96 0 00-6.933 1.987.276.276 0 00-.107.331l1.388 3.49a.265.265 0 00.384.13c1.635-.96 3.544-1.524 5.268-1.524a6.934 6.934 0 014.126 1.293 6.967 6.967 0 012.565 3.49H4.891a.27.27 0 00-.271.271v3.452a.27.27 0 00.27.272h9.26a6.985 6.985 0 01-2.434 4.11 6.948 6.948 0 01-4.5 1.577c-1.725 0-3.631-.567-5.27-1.53a.267.267 0 00-.322.033.266.266 0 00-.064.096L.17 33.003a.277.277 0 00.107.33 12.982 12.982 0 006.933 1.988c6.69 0 11.944-5.07 11.944-11.632.015-6.588-5.24-11.659-11.93-11.659zm48.81 7.063h-3.991v-6.954a.27.27 0 00-.195-.26.272.272 0 00-.114-.008l-4.465.631a.269.269 0 00-.233.268v21.643a.272.272 0 00.27.272h8.728c5.71 0 9.151-2.679 9.151-7.684 0-5.004-3.559-7.908-9.151-7.908zm-.178 11.443h-3.813v-7.07h3.813c2.63 0 4.184 1.413 4.184 3.535-.003 2.553-1.654 3.535-4.184 3.535zM26.694 12.529a.27.27 0 00-.267.226c-.165 1.007-.85 5.192-1.51 8.978-.33 1.922-.919 4.984-1.463 6.113-.81 1.672-2.17 2.518-3.894 2.915a.268.268 0 00-.205.331l1.01 3.974a.277.277 0 00.3.205c3.974-.462 6.407-2.003 7.714-6.922.731-2.753 2.33-11.354 2.33-11.354h5.559v17.486a.272.272 0 00.27.272h4.424a.27.27 0 00.27-.272V12.793a.272.272 0 00-.27-.271l-14.268.007zm79.78-.262c-2.528 0-5.002 1.149-6.535 2.475v-2.598a.273.273 0 00-.307-.268l-4.457.621a.268.268 0 00-.235.268V45.38a.273.273 0 00.271.273h4.465a.268.268 0 00.25-.169.273.273 0 00.02-.104V33.31c1.736 1.067 3.845 1.678 6.24 1.678 6.603 0 11.261-4.767 11.261-11.258-.008-6.842-4.889-11.463-10.973-11.463zm-.359 18.317c-3.856 0-6.497-2.965-6.497-6.778 0-3.953 2.782-6.918 6.638-6.918 3.809 0 6.678 2.965 6.678 6.824 0 3.953-2.963 6.872-6.819 6.872zM80.265 12.7c-2.928 0-5.368 1.079-6.728 2.58.914-4.09 2.591-5.617 5.282-6.57 1.751-.622 3.699-.901 5.42-1.343 2.71-.696 3.454-1.186 4.888-1.893a.276.276 0 00.137-.349L87.57.986a.265.265 0 00-.36-.144 22.339 22.339 0 01-4.234 1.526c-1.77.428-4.006.979-6.015 1.68-7.322 2.549-8.913 8.785-8.946 17.472v.247h.008c.094 8.74 5.145 13.108 11.543 13.108 6.551 0 11.37-4.728 11.37-11.158C90.928 17.429 86.3 12.7 80.265 12.7zm-.882 17.185a6.222 6.222 0 01-3.463-1.056 6.25 6.25 0 01-2.296-2.807 6.272 6.272 0 011.355-6.816 6.23 6.23 0 016.796-1.353 6.24 6.24 0 012.798 2.304 6.268 6.268 0 01-.779 7.898 6.228 6.228 0 01-4.41 1.83zm62.933-17.357h-5.086a.274.274 0 00-.246.166l-6.478 14.046-6.872-14.05a.27.27 0 00-.243-.152h-5.135a.273.273 0 00-.23.126.268.268 0 00-.014.263l9.618 20.023s-1.829 4.208-2.705 5.486c-.991 1.43-2.194 2.742-4.35 3.52a.27.27 0 00-.178.3l.725 4.117a.27.27 0 00.119.18.269.269 0 00.211.04c2.718-.583 4.237-1.306 6.079-3.208 1.515-1.568 2.894-4.253 3.84-6.291 3.187-6.866 10.009-21.61 11.194-24.172a.268.268 0 00-.011-.268.273.273 0 00-.238-.126z" fill="#424346"/></svg>
